img/icones/carbono.svg

<svg width="32" height="32" viewBox="0 0 32 32" fill="none" xmlns="http://www.w3.org/2000/svg">
<path d="M22.667 22.653C20.867 22.653 19.734 23.213 18.734 23.72C17.867 24.16 17.16 24.52 16 24.52C14.8 24.52 14.134 24.187 13.267 23.72C12.267 23.213 11.174 22.653 9.33399 22.653C7.49399 22.653 6.39999 23.213 5.39999 23.72C4.82699 24.013 4.31999 24.267 3.70699 24.413C3.10699 24.547 2.66699 25.027 2.66699 25.627V25.76C2.66699 26.56 3.41399 27.133 4.18699 26.973C5.17399 26.773 5.91999 26.4 6.59999 26.053C7.46699 25.613 8.15999 25.253 9.33399 25.253C10.507 25.253 11.2 25.587 12.067 26.053C13.067 26.56 14.16 27.12 16 27.12C17.84 27.12 18.934 26.56 19.934 26.053C20.8 25.613 21.507 25.253 22.667 25.253C23.867 25.253 24.534 25.587 25.4 26.053C26.094 26.4 26.84 26.787 27.84 26.987C28.0202 27.0222 28.206 27.0173 28.3841 26.9728C28.5622 26.9283 28.7284 26.8452 28.8709 26.7294C29.0134 26.6136 29.1287 26.4679 29.2088 26.3027C29.2888 26.1374 29.3315 25.9566 29.334 25.773V25.653C29.334 25.04 28.88 24.56 28.28 24.427C27.667 24.293 27.174 24.04 26.6 23.733C25.6 23.213 24.467 22.653 22.667 22.653ZM22.667 16.72C20.867 16.72 19.734 17.293 18.734 17.787C17.867 18.213 17.16 18.587 16 18.587C14.8 18.587 14.134 18.253 13.267 17.787C12.267 17.28 11.174 16.72 9.33399 16.72C7.49399 16.72 6.39999 17.293 5.39999 17.787C4.82699 18.067 4.31999 18.333 3.69399 18.48C3.10699 18.613 2.66699 19.093 2.66699 19.693V19.827C2.66713 20.0112 2.70831 20.1931 2.78755 20.3594C2.86679 20.5257 2.9821 20.6723 3.12508 20.7885C3.26807 20.9047 3.43514 20.9875 3.61416 21.031C3.79318 21.0745 3.97964 21.0776 4.15999 21.04C5.15999 20.84 5.90699 20.453 6.59999 20.12C7.46699 19.653 8.13399 19.32 9.33399 19.32C10.534 19.32 11.2 19.653 12.067 20.12C13.067 20.627 14.16 21.187 16 21.187C17.84 21.187 18.934 20.613 19.934 20.12C20.8 19.653 21.467 19.32 22.667 19.32C23.867 19.32 24.534 19.653 25.4 20.12C26.094 20.467 26.84 20.853 27.84 21.053C28.0212 21.0887 28.2081 21.0839 28.3873 21.0388C28.5664 20.9938 28.7334 20.9096 28.8762 20.7925C29.019 20.6753 29.1341 20.5279 29.2133 20.361C29.2924 20.1941 29.3336 20.0117 29.334 19.827V19.707C29.334 19.093 28.88 18.613 28.28 18.48C27.667 18.347 27.174 18.093 26.6 17.787C25.6 17.28 24.467 16.72 22.667 16.72ZM26.6 5.947C25.6 5.44 24.494 4.88 22.667 4.88C20.84 4.88 19.734 5.44 18.734 5.947C17.867 6.373 17.16 6.747 16 6.747C14.8 6.747 14.134 6.413 13.267 5.947C12.267 5.453 11.174 4.88 9.33399 4.88C7.49399 4.88 6.39999 5.44 5.39999 5.947C4.82699 6.24 4.31999 6.493 3.70699 6.64C3.10699 6.773 2.66699 7.253 2.66699 7.853V7.947C2.66699 8.747 3.38699 9.33301 4.15999 9.17301C5.15999 8.97301 5.90699 8.58701 6.59999 8.25301C7.46699 7.81301 8.15999 7.453 9.33399 7.453C10.507 7.453 11.2 7.78701 12.067 8.25301C13.067 8.76001 14.16 9.32 16 9.32C17.84 9.32 18.934 8.74701 19.934 8.25301C20.8 7.82701 21.507 7.453 22.667 7.453C23.867 7.453 24.534 7.78701 25.4 8.25301C26.094 8.60001 26.84 8.98701 27.84 9.18701C28.0213 9.22236 28.2081 9.21722 28.3872 9.17197C28.5663 9.12673 28.7331 9.04248 28.8759 8.92525C29.0186 8.80803 29.1337 8.66072 29.2129 8.49386C29.2921 8.327 29.3334 8.1447 29.334 7.96V7.84C29.334 7.227 28.88 6.747 28.28 6.613C27.667 6.48 27.174 6.24 26.6 5.947ZM22.667 10.787C20.867 10.787 19.734 11.36 18.734 11.853C17.867 12.32 17.2 12.653 16 12.653C14.8 12.653 14.134 12.32 13.267 11.853C12.267 11.347 11.174 10.787 9.33399 10.787C7.49399 10.787 6.39999 11.36 5.39999 11.853C4.82699 12.16 4.33399 12.413 3.71999 12.547C3.11999 12.68 2.66699 13.16 2.66699 13.773V13.893C2.66698 14.0773 2.70806 14.2593 2.78723 14.4258C2.86641 14.5922 2.98169 14.7389 3.12469 14.8552C3.2677 14.9715 3.43482 15.0544 3.61392 15.098C3.79301 15.1415 3.97956 15.1446 4.15999 15.107C5.15999 14.907 5.90699 14.52 6.59999 14.187C7.46699 13.76 8.17399 13.387 9.33399 13.387C10.494 13.387 11.2 13.72 12.067 14.187C13.067 14.693 14.16 15.253 16 15.253C17.84 15.253 18.934 14.68 19.934 14.187C20.8 13.76 21.507 13.387 22.667 13.387C23.867 13.387 24.534 13.72 25.4 14.187C26.094 14.533 26.84 14.92 27.84 15.12C28.0201 15.1551 28.2058 15.1503 28.3839 15.1059C28.5619 15.0614 28.7281 14.9784 28.8705 14.8627C29.013 14.7471 29.1284 14.6015 29.2085 14.4364C29.2885 14.2712 29.3314 14.0905 29.334 13.907V13.787C29.334 13.173 28.88 12.693 28.28 12.56C27.667 12.427 27.174 12.173 26.6 11.867C25.6 11.347 24.467 10.787 22.667 10.787Z" fill="url(#paint0_linear_143_34)"/>
<defs>
<linearGradient id="paint0_linear_143_34" x1="16" y1="4.88" x2="16" y2="27.12" gradientUnits="userSpaceOnUse">
<stop stop-color="#AC62CB"/>
<stop offset="1" stop-color="#75268B"/>
</linearGradient>
</defs>
</svg>

<svg width="32" height="32" fill="none" xmlns="http://www.w3.org/2000/svg">
  <path d="M22.667 22.653c-1.8 0-2.933.56-3.933 1.067-.867.44-1.574.8-2.734.8-1.2 0-1.866-.333-2.733-.8-1-.507-2.093-1.067-3.933-1.067-1.84 0-2.934.56-3.934 1.067-.573.293-1.08.547-1.693.693-.6.134-1.04.614-1.04 1.214v.133c0 .8.747 1.373 1.52 1.213.987-.2 1.733-.573 2.413-.92.867-.44 1.56-.8 2.734-.8 1.173 0 1.866.334 2.733.8 1 .507 2.093 1.067 3.933 1.067 1.84 0 2.934-.56 3.934-1.067.866-.44 1.573-.8 2.733-.8 1.2 0 1.867.334 2.733.8.694.347 1.44.734 2.44.934a1.254 1.254 0 0 0 1.494-1.214v-.12c0-.613-.454-1.093-1.054-1.226-.613-.134-1.106-.387-1.68-.694-1-.52-2.133-1.08-3.933-1.08Zm0-5.933c-1.8 0-2.933.573-3.933 1.067-.867.426-1.574.8-2.734.8-1.2 0-1.866-.334-2.733-.8-1-.507-2.093-1.067-3.933-1.067-1.84 0-2.934.573-3.934 1.067-.573.28-1.08.546-1.706.693-.587.133-1.027.613-1.027 1.213v.134A1.24 1.24 0 0 0 4.16 21.04c1-.2 1.747-.587 2.44-.92.867-.467 1.534-.8 2.734-.8s1.866.333 2.733.8c1 .507 2.093 1.067 3.933 1.067 1.84 0 2.934-.574 3.934-1.067.866-.467 1.533-.8 2.733-.8 1.2 0 1.867.333 2.733.8.694.347 1.44.733 2.44.933a1.252 1.252 0 0 0 1.494-1.226v-.12c0-.614-.454-1.094-1.054-1.227-.613-.133-1.106-.387-1.68-.693-1-.507-2.133-1.067-3.933-1.067ZM26.6 5.947c-1-.507-2.106-1.067-3.933-1.067s-2.933.56-3.933 1.067c-.867.426-1.574.8-2.734.8-1.2 0-1.866-.334-2.733-.8-1-.494-2.093-1.067-3.933-1.067-1.84 0-2.934.56-3.934 1.067-.573.293-1.08.546-1.693.693-.6.133-1.04.613-1.04 1.213v.094c0 .8.72 1.386 1.493 1.226 1-.2 1.747-.586 2.44-.92.867-.44 1.56-.8 2.734-.8 1.173 0 1.866.334 2.733.8 1 .507 2.093 1.067 3.933 1.067 1.84 0 2.934-.573 3.934-1.067.866-.426 1.573-.8 2.733-.8 1.2 0 1.867.334 2.733.8.694.347 1.44.734 2.44.934a1.254 1.254 0 0 0 1.494-1.227v-.12c0-.613-.454-1.093-1.054-1.227-.613-.133-1.106-.373-1.68-.666Zm-3.933 4.84c-1.8 0-2.933.573-3.933 1.066-.867.467-1.534.8-2.734.8s-1.866-.333-2.733-.8c-1-.506-2.093-1.066-3.933-1.066-1.84 0-2.934.573-3.934 1.066-.573.307-1.066.56-1.68.694-.6.133-1.053.613-1.053 1.226v.12a1.24 1.24 0 0 0 1.493 1.214c1-.2 1.747-.587 2.44-.92.867-.427 1.574-.8 2.734-.8s1.866.333 2.733.8c1 .506 2.093 1.066 3.933 1.066 1.84 0 2.934-.573 3.934-1.066.866-.427 1.573-.8 2.733-.8 1.2 0 1.867.333 2.733.8.694.346 1.44.733 2.44.933a1.254 1.254 0 0 0 1.494-1.213v-.12c0-.614-.454-1.094-1.054-1.227-.613-.133-1.106-.387-1.68-.693-1-.52-2.133-1.08-3.933-1.08Z" fill="url(#a)"/>
  <defs>
    <linearGradient id="a" x1="16" y1="4.88" x2="16" y2="27.12" gradientUnits="userSpaceOnUse">
      <stop stop-color="#FFBF00"/>
      <stop offset="1" stop-color="#F2A50C"/>
    </linearGradient>
  </defs>
</svg>
